src/components/00-materials/images-raw/Financial Loss.svg

<svg width="96" height="96" viewBox="0 0 96 96" fill="none" xmlns="http://www.w3.org/2000/svg">
<path d="M16.52 57.9299V20.4299M76.16 20.4299V42.3899V20.4299Z" stroke="#00008F" stroke-width="2" stroke-linecap="round" stroke-linejoin="round"/>
<path d="M79.19 14.9099H13.5C12.1193 14.9099 11 16.0292 11 17.4099V17.9199C11 19.3006 12.1193 20.4199 13.5 20.4199H79.19C80.5707 20.4199 81.69 19.3006 81.69 17.9199V17.4099C81.69 16.0292 80.5707 14.9099 79.19 14.9099Z" stroke="#00008F" stroke-width="2" stroke-linecap="round" stroke-linejoin="round"/>
<path d="M21 26.15L34.61 39.38L40.68 33.87L54.7 47.31M58.45 63.44H13.76C13.028 63.44 12.326 63.1492 11.8084 62.6316C11.2908 62.114 11 61.412 11 60.68C11.0026 59.9497 11.2946 59.2503 11.8119 58.7348C12.3292 58.2194 13.0297 57.93 13.76 57.93H56.45L58.45 63.44ZM46.34 14.91V10.5V14.91ZM46.34 85.5V63.44V85.5ZM22.04 85.5L45.24 63.44L22.04 85.5ZM70.64 85.5L47.45 63.44L70.64 85.5Z" stroke="#00008F" stroke-width="2" stroke-linecap="round" stroke-linejoin="round"/>
<path d="M46.97 47.3101H54.7V39.5901" stroke="#00008F" stroke-width="2" stroke-linecap="round" stroke-linejoin="round"/>
<path d="M70.64 70.0599C78.5708 70.0599 85 63.6396 85 55.7199C85 47.8001 78.5708 41.3799 70.64 41.3799C62.7092 41.3799 56.28 47.8001 56.28 55.7199C56.28 63.6396 62.7092 70.0599 70.64 70.0599Z" stroke="#00008F" stroke-width="2" stroke-linecap="round" stroke-linejoin="round"/>
<path d="M75.06 49.72C74.5717 49.1911 73.9817 48.7661 73.3254 48.4705C72.669 48.175 71.9597 48.015 71.24 48C67.86 48 65.12 51.46 65.12 55.72C65.12 59.98 67.86 63.44 71.24 63.44C71.9588 63.4252 72.6673 63.2662 73.3235 62.9725C73.9796 62.6787 74.5702 62.2562 75.06 61.73M62.91 53.51H70.64H62.91ZM62.91 57.93H70.64H62.91Z" stroke="#00008F" stroke-width="2" stroke-linecap="round" stroke-linejoin="round"/>
</svg>

<svg width="96" height="96" viewBox="0 0 96 96" fill="none" xmlns="http://www.w3.org/2000/svg"><path d="M16.52 57.93v-37.5m59.64 0v21.96-21.96zM79.19 14.91H13.5a2.5 2.5 0 00-2.5 2.5v.51a2.5 2.5 0 002.5 2.5h65.69a2.5 2.5 0 002.5-2.5v-.51a2.5 2.5 0 00-2.5-2.5zM21 26.15l13.61 13.23 6.07-5.51L54.7 47.31m3.75 16.13H13.76A2.76 2.76 0 0111 60.68a2.76 2.76 0 012.76-2.75h42.69l2 5.51zM46.34 14.91V10.5v4.41zm0 70.59V63.44 85.5zm-24.3 0l23.2-22.06-23.2 22.06zm48.6 0L47.45 63.44 70.64 85.5z" stroke="#00008F" stroke-width="2" stroke-linecap="round" stroke-linejoin="round"/><path d="M46.97 47.31h7.73v-7.72M70.64 70.06c7.93 0 14.36-6.42 14.36-14.34s-6.43-14.34-14.36-14.34-14.36 6.42-14.36 14.34 6.43 14.34 14.36 14.34z" stroke="#00008F" stroke-width="2" stroke-linecap="round" stroke-linejoin="round"/><path d="M75.06 49.72A5.353 5.353 0 0071.24 48c-3.38 0-6.12 3.46-6.12 7.72s2.74 7.72 6.12 7.72a5.37 5.37 0 003.82-1.71m-12.15-8.22h7.73-7.73zm0 4.42h7.73-7.73z" stroke="#00008F" stroke-width="2" stroke-linecap="round" stroke-linejoin="round"/></svg>
